X: 122
T: Ay Doğar
C: Sadettin Kaynak
O: Turkey
F: http://compmusic.upf.edu/node/140
N: mahur--sarki--duyek--ay_dogar--sadettin_kaynak
N: makam= mahur
N: form= sarki
N: usul= duyek = 8/4
M: 8/4
L: 1/16
K: C ^9/8f   
Q: 1/4=120
%%MIDI tuningsystem comma53
z2 gg g2 g2 g2 f2 e2 d2  | e2 f2 g2 z2 e2 f2 g2 z2  | \
w:   |   | 
z2 gg g2 g2 g2 f2 e2 d2  | 
w:   | 
f2 g2 a4 f2 g2 a4  | z2 aa a2 b2 a2 g2 f2 e2  | \
w:   |   | 
d2 e2 d2 z2 c2 B2 c2 z2  | 
w:   | 
z2 =ff f2 f2 f2 e2 d2 c2  | z2 ee e2 e2 e2 d2 c2 B2  | \
w:   |   | 
z2 dd d2 d2 d2 c2 B2 A2  | 
w:   | 
B2 G2 A2 F2 G4 z4  | z2 g4 g2 g4 a4  | \
w:   |   | 
g2 f2 e2 d2 e2 f2 g4  | z2 g4 g2 g4 a4  | 
w:   |   | 
g2 f2 e2 d2 e2 f2 g4  | z2 d4 e2 e4 e2 d2  | \
w:   |   | 
g2 a6 g2 f2 e2 d2  | z2 c4 c2 c4 c2 B2  | 
w:   |   | 
d^c de d2 c2 _7/8B3A G4  | z2 c4 B2 c4 z4  | \
w:   |   | 
z4 d2 e2 c3B A4  | z4 G2 A2 B4 z4  | 
w:   |   | 
z4 c2 d2 B3A G4  | z2 gg g2 g2 g2 f2 e2 d2  | \
w:   |   | 
e2 f2 g2 z2 e2 f2 g2 z2  | 
w:   | 
z2 gg g2 g2 g2 f2 e2 d2  | f2 g2 a4 f2 g2 a4  | \
w:   |   | 
z2 aa a2 b2 a2 g2 f2 e2  | 
w:   | 
d2 e2 d2 z2 c2 B2 c2 z2  | z2 =ff f2 f2 f2 e2 d2 c2  | \
w:   |   | 
z2 ee e2 e2 e2 d2 c2 B2  | 
w:   | 
z2 dd d2 d2 d2 c2 B2 A2  | B2 G2 A2 F2 G4 z4  | \
w:   |   | 
z2 g4 g2 g4 a4  | g2 f2 e2 d2 e2 f2 g4  | 
w:   |   | 
z2 g4 g2 g4 a4  | g2 f2 e2 d2 e2 f2 g4  | \
w:   |   | 
z2 d4 e2 e4 e2 d2  | g2 a6 g2 f2 e2 d2  | 
w:   |   | 
z2 c4 c2 c4 c2 B2  | d^c de d2 c2 _7/8B3A G4  | \
w:   |   | 
z2 c4 B2 c4 z4  | z4 d2 e2 c3B A4  | 
w:   |   | 
z4 G2 A2 B4 z4  | z4 c2 d2 B3A G4  | \
w:   |   | 
g2 g2 z4 g2 =f2 g2 f2  | e2 e2 d4 c2 B3A G4 z2 A4 A2 A4 A4 A2 c2 B2 A2 G3F E2  | 
w:   |   | 
F2 G12 z4 z2 gg g2 g2 g2 f2 e2  | \
w:   | 
d2 e2 f2 g2 z2 e2 f2 g2  | z2 z2 gg g2 g2 g2 f2 e2  | 
w:   |   | 
d2 f2 g2 a4 f2 g2 a4 z2 aa a2 b2 a2 g2 f2  | \
w:   | 
e2 d2 e2 d2 z2 c2 B2 c2  | 
w:   | 
z2 z2 =ff f2 f2 f2 e2 d2  | c2 z2 ee e2 e2 e2 d2 c2  | \
w:   |   | 
B2 z2 dd d2 d2 d2 c2 B2  | 
w:   | 
A2 B2 G2 A2 F2 G4 z4 z2 g4 g2 g4 a4 g2 f2 e2 d2 e2 f2 g4 z2 g4 g2 g4 a4 g2 f2 e2 d2 e2 f2 g4 z2 d4 e2 e4 e2  | 
w:   | 
d2 g2 a6 g2 f2 e2  | d2 z2 c4 c2 c4 c2  | \
w:   |   | 
B2 d^c de d2 c2 _7/8B3A G4 z2 =c4 =B2 c4 z4 z4 d2 e2 c3B A4 z4 G2 A2 B4 z4 z4 c2 d2 B3A G4 z2 gg g2 g2 g2 f2 e2  | 
w:   | 
d2 e2 f2 g2 z2 e2 f2 g2  | z2 z2 gg g2 g2 g2 f2 e2  | \
w:   |   | 
d2 f2 g2 a4 f2 g2 a4 z2 aa a2 b2 a2 g2 f2  | 
w:   | 
e2 d2 e2 d2 z2 c2 B2 c2  | z2 z2 =ff f2 f2 f2 e2 d2  | \
w:   |   | 
c2 z2 ee e2 e2 e2 d2 c2  | 
w:   | 
B2 z2 dd d2 d2 d2 c2 B2  | A2 B2 G2 A2 F2 G4 z4 z2 g4 g2 g4 a4 g2 f2 e2 d2 e2 f2 g4 z2 g4 g2 g4 a4 g2 f2 e2 d2 e2 f2 g4 z2 d4 e2 e4 e2  | 
w:   |   | 
d2 g2 a6 g2 f2 e2  | d2 z2 c4 c2 c4 c2  | \
w:   |   | 
B2 d^c de d2 c2 _7/8B3A G4 z2 =c4 =B2 c4 z4 z4 d2 e2 c3B A4 z4 G2 A2 B4 z4 z4 c2 d2 B3A G4 g2 g2 z4 g2 =f2 g2  | 
w:   | 
=f2 e2 e2 d4 c2 B3A  | G4 z2 A4 A2 A4  | \
w:   |   | 
A4 A2 c2 B2 A2 G3F  | E2 F2 G12  | 
w:   |   | 
z4 |


